X: 309
T: MY DEAR DARLING
T: Sa mhuirnin dhileas
B: O'Neill's 309
M: C
L: 1/8
Z: 1999 by John Chambers <jc@trillian.mit.edu>
N: "Tenderly"
K:D
A \
|d2de dccd|BA Bd/c/ BAFB|AGFE DEFA|B2 c3/2B//c// d3A|
|d2fd dccd|BABc BAFB|AGFE DEFA|B2 dcc cd3||
||A \
|d2de f2fa|g2fe fd Bc|d2fd dccd|BABc BAFf|
|agfe dccd|BA Bd/c/ BAFB|AGFE DEFA|B2 dcc cd3||
